public/icons/opensea.svg

<?xml version="1.0" encoding="UTF-8"?>
<svg version="1.1" viewBox="0 0 90 90" xmlns="http://www.w3.org/2000/svg">
<path d="m45 0c-24.849 0-45 20.151-45 45s20.151 45 45 45 45-20.151 45-45-20.142-45-45-45zm-22.797 46.512 0.189-0.306 11.709-18.315c0.171-0.261 0.576-0.234 0.702 0.054 1.953 4.383 3.645 9.837 2.853 13.23-0.333 1.395-1.26 3.285-2.304 5.031-0.135 0.252-0.279 0.504-0.441 0.747-0.072 0.108-0.198 0.171-0.333 0.171h-12.033c-0.324 0-0.513-0.351-0.342-0.612zm52.173 6.3c0 0.171-0.099 0.315-0.243 0.378-0.909 0.387-4.014 1.818-5.301 3.609-3.294 4.581-5.805 11.133-11.43 11.133h-23.454c-8.316 0-15.048-6.759-15.048-15.102v-0.27c0-0.216 0.18-0.396 0.405-0.396h13.068c0.261 0 0.45 0.234 0.432 0.495-0.099 0.846 0.063 1.719 0.468 2.511 0.774 1.575 2.385 2.556 4.122 2.556h6.471v-5.049h-6.399c-0.324 0-0.522-0.378-0.333-0.648 0.072-0.108 0.144-0.216 0.234-0.342 0.603-0.864 1.467-2.196 2.331-3.717 0.585-1.026 1.152-2.124 1.611-3.222 0.09-0.198 0.162-0.405 0.243-0.603 0.126-0.351 0.252-0.684 0.342-1.008 0.09-0.279 0.171-0.567 0.243-0.837 0.216-0.936 0.306-1.926 0.306-2.952 0-0.405-0.018-0.828-0.054-1.224-0.018-0.441-0.072-0.882-0.126-1.323-0.036-0.387-0.108-0.774-0.18-1.17-0.099-0.585-0.225-1.17-0.369-1.755l-0.054-0.225c-0.108-0.405-0.207-0.783-0.333-1.188-0.369-1.26-0.783-2.493-1.233-3.645-0.162-0.459-0.342-0.9-0.531-1.332-0.27-0.666-0.549-1.269-0.801-1.836-0.135-0.261-0.243-0.495-0.351-0.738-0.126-0.27-0.252-0.54-0.387-0.801-0.09-0.198-0.198-0.387-0.27-0.567l-0.792-1.458c-0.108-0.198 0.072-0.441 0.288-0.378l4.95 1.341h0.018 0.018l0.648 0.189 0.72 0.198 0.261 0.072v-2.934c0-1.422 1.134-2.574 2.547-2.574 0.702 0 1.341 0.288 1.791 0.756 0.459 0.468 0.747 1.107 0.747 1.818v4.365l0.531 0.144c0.036 0.018 0.081 0.036 0.117 0.063 0.126 0.09 0.315 0.234 0.549 0.414 0.189 0.144 0.387 0.324 0.621 0.513 0.477 0.387 1.053 0.882 1.674 1.449 0.162 0.144 0.324 0.288 0.477 0.441 0.801 0.747 1.701 1.62 2.565 2.592 0.243 0.279 0.477 0.549 0.72 0.846 0.234 0.297 0.495 0.585 0.711 0.873 0.297 0.387 0.603 0.792 0.882 1.215 0.126 0.198 0.279 0.405 0.396 0.603 0.36 0.531 0.666 1.08 0.963 1.629 0.126 0.252 0.252 0.531 0.36 0.801 0.333 0.738 0.594 1.485 0.756 2.241 0.054 0.162 0.09 0.333 0.108 0.495v0.036c0.054 0.216 0.072 0.45 0.09 0.693 0.072 0.765 0.036 1.539-0.126 2.313-0.072 0.324-0.162 0.63-0.27 0.963-0.117 0.315-0.225 0.639-0.369 0.954-0.279 0.639-0.603 1.287-0.99 1.881-0.126 0.225-0.279 0.459-0.423 0.684-0.162 0.234-0.333 0.459-0.477 0.675-0.207 0.279-0.423 0.567-0.648 0.828-0.198 0.27-0.396 0.54-0.621 0.783-0.306 0.369-0.603 0.711-0.918 1.044-0.18 0.216-0.378 0.441-0.585 0.639-0.198 0.225-0.405 0.423-0.585 0.603-0.315 0.315-0.567 0.549-0.783 0.756l-0.513 0.459c-0.072 0.072-0.171 0.108-0.27 0.108h-3.942v5.049h4.959c1.107 0 2.16-0.387 3.015-1.116 0.288-0.252 1.557-1.35 3.06-3.006 0.054-0.063 0.117-0.099 0.189-0.117l13.689-3.96c0.261-0.072 0.513 0.117 0.513 0.387v2.898z" fill="#fff" fill-opacity="0.87"/>
</svg>

<?xml version="1.0" encoding="UTF-8" standalone="no"?>
<svg
   width="90"
   height="90"
   viewBox="0 0 90 90"
   fill="none"
   id="svg2"
   version="1.1"
   inkscape:version="1.2.2 (732a01da63, 2022-12-09)"
   sodipodi:docname="opensea.svg"
   xmlns:inkscape="http://www.inkscape.org/namespaces/inkscape"
   xmlns:sodipodi="http://sodipodi.sourceforge.net/DTD/sodipodi-0.dtd"
   xmlns="http://www.w3.org/2000/svg"
   xmlns:svg="http://www.w3.org/2000/svg"
   xmlns:rdf="http://www.w3.org/1999/02/22-rdf-syntax-ns#"
   xmlns:cc="http://creativecommons.org/ns#"
   xmlns:dc="http://purl.org/dc/elements/1.1/">
  <metadata
     id="metadata10">
    <rdf:RDF>
      <cc:Work
         rdf:about="">
        <dc:format>image/svg+xml</dc:format>
        <dc:type
           rdf:resource="http://purl.org/dc/dcmitype/StillImage" />
      </cc:Work>
    </rdf:RDF>
  </metadata>
  <defs
     id="defs8" />
  <sodipodi:namedview
     pagecolor="#ffffff"
     bordercolor="#666666"
     borderopacity="1"
     objecttolerance="10"
     gridtolerance="10"
     guidetolerance="10"
     inkscape:pageopacity="0"
     inkscape:pageshadow="2"
     inkscape:window-width="1920"
     inkscape:window-height="1009"
     id="namedview6"
     showgrid="false"
     inkscape:zoom="5.2444444"
     inkscape:cx="69.311441"
     inkscape:cy="40.995763"
     inkscape:window-x="-8"
     inkscape:window-y="-8"
     inkscape:window-maximized="1"
     inkscape:current-layer="svg2"
     inkscape:showpageshadow="2"
     inkscape:pagecheckerboard="0"
     inkscape:deskcolor="#d1d1d1" />
  <path
     d="M45 0C20.151 0 0 20.151 0 45C0 69.849 20.151 90 45 90C69.849 90 90 69.849 90 45C90 20.151 69.858 0 45 0ZM22.203 46.512L22.392 46.206L34.101 27.891C34.272 27.63 34.677 27.657 34.803 27.945C36.756 32.328 38.448 37.782 37.656 41.175C37.323 42.57 36.396 44.46 35.352 46.206C35.217 46.458 35.073 46.71 34.911 46.953C34.839 47.061 34.713 47.124 34.578 47.124H22.545C22.221 47.124 22.032 46.773 22.203 46.512ZM74.376 52.812C74.376 52.983 74.277 53.127 74.133 53.19C73.224 53.577 70.119 55.008 68.832 56.799C65.538 61.38 63.027 67.932 57.402 67.932H33.948C25.632 67.932 18.9 61.173 18.9 52.83V52.56C18.9 52.344 19.08 52.164 19.305 52.164H32.373C32.634 52.164 32.823 52.398 32.805 52.659C32.706 53.505 32.868 54.378 33.273 55.17C34.047 56.745 35.658 57.726 37.395 57.726H43.866V52.677H37.467C37.143 52.677 36.945 52.299 37.134 52.029C37.206 51.921 37.278 51.813 37.368 51.687C37.971 50.823 38.835 49.491 39.699 47.97C40.284 46.944 40.851 45.846 41.31 44.748C41.4 44.55 41.472 44.343 41.553 44.145C41.679 43.794 41.805 43.461 41.895 43.137C41.985 42.858 42.066 42.57 42.138 42.3C42.354 41.364 42.444 40.374 42.444 39.348C42.444 38.943 42.426 38.52 42.39 38.124C42.372 37.683 42.318 37.242 42.264 36.801C42.228 36.414 42.156 36.027 42.084 35.631C41.985 35.046 41.859 34.461 41.715 33.876L41.661 33.651C41.553 33.246 41.454 32.868 41.328 32.463C40.959 31.203 40.545 29.97 40.095 28.818C39.933 28.359 39.753 27.918 39.564 27.486C39.294 26.82 39.015 26.217 38.763 25.65C38.628 25.389 38.52 25.155 38.412 24.912C38.286 24.642 38.16 24.372 38.025 24.111C37.935 23.913 37.827 23.724 37.755 23.544L36.963 22.086C36.855 21.888 37.035 21.645 37.251 21.708L42.201 23.049H42.219C42.228 23.049 42.228 23.049 42.237 23.049L42.885 23.238L43.605 23.436L43.866 23.508V20.574C43.866 19.152 45 18 46.413 18C47.115 18 47.754 18.288 48.204 18.756C48.663 19.224 48.951 19.863 48.951 20.574V24.939L49.482 25.083C49.518 25.101 49.563 25.119 49.599 25.146C49.725 25.236 49.914 25.38 50.148 25.56C50.337 25.704 50.535 25.884 50.769 26.073C51.246 26.46 51.822 26.955 52.443 27.522C52.605 27.666 52.767 27.81 52.92 27.963C53.721 28.71 54.621 29.583 55.485 30.555C55.728 30.834 55.962 31.104 56.205 31.401C56.439 31.698 56.7 31.986 56.916 32.274C57.213 32.661 57.519 33.066 57.798 33.489C57.924 33.687 58.077 33.894 58.194 34.092C58.554 34.623 58.86 35.172 59.157 35.721C59.283 35.973 59.409 36.252 59.517 36.522C59.85 37.26 60.111 38.007 60.273 38.763C60.327 38.925 60.363 39.096 60.381 39.258V39.294C60.435 39.51 60.453 39.744 60.471 39.987C60.543 40.752 60.507 41.526 60.345 42.3C60.273 42.624 60.183 42.93 60.075 43.263C59.958 43.578 59.85 43.902 59.706 44.217C59.427 44.856 59.103 45.504 58.716 46.098C58.59 46.323 58.437 46.557 58.293 46.782C58.131 47.016 57.96 47.241 57.816 47.457C57.609 47.736 57.393 48.024 57.168 48.285C56.97 48.555 56.772 48.825 56.547 49.068C56.241 49.437 55.944 49.779 55.629 50.112C55.449 50.328 55.251 50.553 55.044 50.751C54.846 50.976 54.639 51.174 54.459 51.354C54.144 51.669 53.892 51.903 53.676 52.11L53.163 52.569C53.091 52.641 52.992 52.677 52.893 52.677H48.951V57.726H53.91C55.017 57.726 56.07 57.339 56.925 56.61C57.213 56.358 58.482 55.26 59.985 53.604C60.039 53.541 60.102 53.505 60.174 53.487L73.863 49.527C74.124 49.455 74.376 49.644 74.376 49.914V52.812V52.812Z"
     id="path4"
     style="fill:#ffffff;fill-opacity:1"
     fill="white" />
</svg>
